public/img/decorations/deco-dots-6.svg

<svg width="114" height="64" viewBox="0 0 114 64" fill="none" xmlns="http://www.w3.org/2000/svg">
<path d="M73.32 8.86801C73.459 7.62901 72.664 7.25601 71.906 6.76901C70.867 6.10101 70.59 5.277 71.031 4.345C71.222 3.945 71.58 3.52399 71.969 3.33499C73.746 2.47299 76.209 3.20301 77.276 4.85901C77.698 5.51701 77.764 6.25802 77.266 6.87702C76.352 8.01402 75.258 8.90001 73.32 8.86801Z" fill="black"/>
<path d="M33.5251 51.6231C32.8901 51.3521 32.2261 51.1311 31.6251 50.7981C30.5961 50.2291 29.8591 49.4331 29.9791 48.1321C30.0831 46.9981 31.0281 46.0351 32.3131 45.7621C32.5471 45.7121 32.7801 45.6531 33.0181 45.6251C34.1571 45.4901 34.8851 45.9071 35.2481 46.9691C35.5371 47.8111 35.6291 48.6821 35.3671 49.5591C35.1191 50.3861 34.8261 50.7141 33.5251 51.6231Z" fill="black"/>
<path d="M3.47102 38.293C3.28302 38.205 2.79302 38.133 2.59002 37.854C1.75002 36.698 0.916028 35.502 0.709028 34.047C0.582028 33.168 1.12103 32.389 1.85003 32.159C2.72303 31.885 3.61003 31.74 4.24803 32.605C4.86303 33.436 5.44502 34.295 5.98002 35.179C6.42302 35.909 6.49802 36.75 5.98002 37.446C5.43202 38.186 4.63102 38.556 3.47102 38.293Z" fill="black"/>
<path d="M67.549 22.483C67.445 22.721 67.2249 23.225 67.0039 23.7311C66.5509 24.7751 64.135 25.134 63.51 24.034C63.164 23.424 62.795 22.809 62.571 22.15C62.307 21.368 62.7659 20.481 63.5589 20.271C64.3169 20.071 65.121 19.966 65.907 19.967C67.271 19.969 67.865 20.8 67.549 22.483Z" fill="black"/>
<path d="M113.014 61.366C112.778 62.277 112.307 62.954 111.313 63.154C110.467 63.323 109.659 63.007 109.295 62.258C108.984 61.621 108.719 60.96 108.49 60.29C108.24 59.564 108.351 58.879 108.888 58.29C109.443 57.681 110.148 57.632 110.87 57.811C112.268 58.155 113.34 59.966 113.014 61.366Z" fill="black"/>
<path d="M77.145 37.633C77.024 37.16 77.006 36.559 76.731 36.115C76.016 34.961 76.557 34.14 77.311 33.351C77.944 32.688 78.721 32.651 79.52 32.996C80.547 33.439 81.223 34.154 81.262 35.35C81.305 36.698 80.594 37.668 79.283 37.959C78.568 38.118 77.859 38.126 77.145 37.633ZM79.16 34.699C79.01 34.366 78.969 34.112 78.818 33.978C78.531 33.719 78.056 33.958 77.957 34.434C77.918 34.622 78.053 34.848 78.107 35.057C78.438 34.945 78.768 34.833 79.16 34.699Z" fill="black"/>
<path d="M20.1408 2.24493C19.9418 3.29493 19.8318 4.24094 19.5608 5.13894C19.4088 5.63894 19.0378 6.10193 18.6738 6.49993C18.2758 6.93693 17.7188 7.04993 17.1448 6.84093C16.5428 6.62293 16.3168 6.10692 16.2898 5.53292C16.2688 5.06392 16.3778 4.58994 16.4228 4.11794C16.4678 3.64594 16.5828 3.16294 16.5228 2.70394C16.4528 2.16194 16.1598 1.58792 16.8118 1.25292C17.4618 0.918921 18.1768 0.801922 18.8448 1.22292C19.2418 1.47292 19.5878 1.80293 20.1408 2.24493Z" fill="black"/>
<path d="M23.2341 25.618C24.1191 26.151 24.435 26.944 24.58 27.828C24.73 28.752 24.307 29.665 23.58 30.052C22.793 30.472 22.0041 30.371 21.3551 29.843C20.8821 29.458 20.466 28.929 20.201 28.379C19.627 27.184 20.1251 26.191 21.4371 25.85C22.0351 25.693 22.6721 25.686 23.2341 25.618Z" fill="black"/>
<path d="M53.8851 37.898C53.8231 38.16 53.7891 38.316 53.7461 38.469C53.3441 39.94 52.426 40.185 51.365 39.093C51.033 38.751 50.7011 38.396 50.4451 37.997C49.6231 36.716 50.181 35.248 51.636 34.79C52.845 34.41 53.9041 35.085 53.9821 36.337C54.0181 36.89 53.9161 37.449 53.8851 37.898Z" fill="black"/>
<path d="M96.3362 23.504C96.6952 24.849 96.9922 25.958 97.3112 27.15C96.9012 27.557 96.5022 28.055 96.0062 28.419C95.2012 29.007 94.0222 28.583 93.6902 27.628C93.3722 26.714 93.1762 25.818 93.8382 24.92C94.4672 24.064 95.0642 23.255 96.3362 23.504Z" fill="black"/>
<path d="M107.16 42.976C106.738 42.19 106.299 41.369 105.873 40.572C106.926 38.66 107.978 38.166 109.469 38.85C110.057 39.12 110.299 39.577 110.153 40.205C109.954 41.068 109.678 41.916 108.983 42.514C108.492 42.935 107.914 43.205 107.16 42.976Z" fill="black"/>
<path d="M45.7482 13.598C45.4982 14.83 43.6893 15.898 42.5393 15.523C42.3933 15.475 42.2343 15.396 42.1313 15.286C41.5783 14.695 41.5333 12.985 42.0393 12.364C42.7253 11.522 44.2422 11.273 45.0762 11.93C45.6042 12.346 45.8182 12.954 45.7482 13.598Z" fill="black"/>
<path d="M62.6021 60.476C60.2951 60.503 60.295 60.503 60.123 59.02C60.377 58.64 60.6561 58.923 60.9351 58.978C61.4471 59.076 61.8301 58.914 62.1091 58.435C62.6521 57.508 62.67 57.518 63.929 57.089C64.077 57.409 64.3251 57.734 64.3701 58.084C64.4811 58.947 64.5461 59.822 64.5461 60.692C64.5461 61.367 64.2671 61.915 63.3231 62.044C63.0881 61.533 62.8401 60.995 62.6021 60.476Z" fill="black"/>
<path d="M84.02 54.013C84.163 54.756 83.719 55.267 83.211 55.602C82.498 56.072 81.695 56.422 80.899 56.745C80.362 56.963 79.821 56.411 79.895 55.8C80.032 54.663 80.752 53.941 81.704 53.484C82.557 53.073 83.383 53.232 84.02 54.013Z" fill="black"/>
</svg>

<svg width="114" height="64" fill="none" xmlns="http://www.w3.org/2000/svg"><path d="M73.32 8.868c.139-1.239-.656-1.612-1.414-2.099-1.039-.668-1.316-1.492-.875-2.424.191-.4.549-.821.938-1.01 1.777-.862 4.24-.132 5.307 1.524.422.658.488 1.399-.01 2.018-.914 1.137-2.008 2.023-3.946 1.991zM33.525 51.623c-.635-.27-1.299-.492-1.9-.825-1.029-.569-1.766-1.365-1.646-2.666.104-1.134 1.05-2.097 2.334-2.37.234-.05.467-.109.705-.137 1.14-.135 1.867.282 2.23 1.344.29.842.381 1.713.12 2.59-.249.827-.542 1.155-1.843 2.064zM3.471 38.293c-.188-.088-.678-.16-.881-.439-.84-1.156-1.674-2.352-1.881-3.807-.127-.879.412-1.658 1.141-1.888.873-.274 1.76-.419 2.398.446.615.831 1.197 1.69 1.732 2.574.443.73.518 1.571 0 2.267-.548.74-1.349 1.11-2.509.847zm64.078-15.81l-.545 1.248c-.453 1.044-2.869 1.403-3.494.303-.346-.61-.715-1.225-.939-1.884-.264-.782.195-1.669.988-1.879a9.246 9.246 0 012.348-.304c1.364.002 1.958.833 1.642 2.516zm45.465 38.883c-.236.911-.707 1.588-1.701 1.788-.846.169-1.654-.147-2.018-.896a17.066 17.066 0 01-.805-1.968c-.25-.726-.139-1.411.398-2 .555-.609 1.26-.658 1.982-.479 1.398.344 2.47 2.155 2.144 3.555zM77.145 37.633c-.121-.473-.139-1.074-.414-1.518-.715-1.154-.174-1.975.58-2.764.633-.663 1.41-.7 2.209-.355 1.027.443 1.703 1.158 1.742 2.354.043 1.348-.668 2.318-1.979 2.609-.715.159-1.424.167-2.138-.326zm2.015-2.934c-.15-.333-.191-.587-.342-.721-.287-.259-.762-.02-.861.456-.039.188.096.414.15.623l1.053-.358zM20.14 2.245c-.198 1.05-.308 1.996-.58 2.894-.151.5-.522.963-.886 1.36-.398.438-.955.55-1.53.342-.601-.218-.827-.734-.854-1.308-.021-.47.088-.943.133-1.415.045-.472.16-.955.1-1.414-.07-.542-.363-1.116.289-1.451.65-.334 1.365-.451 2.033-.03.397.25.743.58 1.296 1.022zm3.094 23.373c.885.533 1.201 1.326 1.346 2.21.15.924-.273 1.837-1 2.224-.787.42-1.576.319-2.225-.209a4.413 4.413 0 01-1.154-1.464c-.574-1.195-.076-2.188 1.236-2.529.598-.157 1.235-.164 1.797-.232zm30.651 12.28c-.062.262-.096.418-.139.571-.402 1.471-1.32 1.716-2.381.624-.332-.342-.664-.697-.92-1.096-.822-1.281-.264-2.749 1.191-3.207 1.209-.38 2.268.295 2.346 1.547.036.553-.066 1.112-.097 1.561zm42.451-14.394l.975 3.646c-.41.407-.809.905-1.305 1.269-.805.588-1.984.164-2.316-.791-.318-.914-.514-1.81.148-2.708.63-.856 1.226-1.665 2.498-1.416zm10.824 19.472c-.422-.786-.861-1.607-1.287-2.404 1.053-1.912 2.105-2.406 3.596-1.722.588.27.83.727.684 1.355-.199.863-.475 1.711-1.17 2.309-.491.421-1.069.691-1.823.462zM45.748 13.598c-.25 1.232-2.059 2.3-3.209 1.925a1 1 0 01-.408-.237c-.553-.591-.598-2.301-.092-2.922.686-.842 2.203-1.091 3.037-.434.528.416.742 1.024.672 1.668zm16.854 46.878c-2.307.027-2.307.027-2.479-1.456.254-.38.533-.097.812-.042.512.098.895-.064 1.174-.543.543-.927.561-.917 1.82-1.346.148.32.396.645.441.995.111.863.176 1.738.176 2.608 0 .675-.279 1.223-1.223 1.352-.235-.511-.483-1.049-.72-1.568zm21.418-6.463c.143.743-.301 1.254-.809 1.589-.713.47-1.516.82-2.312 1.143-.537.218-1.078-.334-1.004-.945.137-1.137.857-1.859 1.809-2.316.853-.411 1.679-.252 2.316.529z" fill="#000"/></svg>
